static/logos/walletconnect-wordmark-color.svg

<svg width="100" height="17" viewBox="0 0 100 17" fill="none" xmlns="http://www.w3.org/2000/svg">
<g clip-path="url(#clip0_1_445)">
<path fill-rule="evenodd" clip-rule="evenodd" d="M36.1039 8.92561L34.7315 13.8643H33.304L31.3906 6.63658H32.9584L34.0954 11.8708H34.1355L35.4878 6.63658H36.7651L38.1174 11.8708H38.1575L39.2995 6.63658H40.8673L38.9489 13.8643H37.5214L36.149 8.92561H36.1039ZM42.9509 12.8926C43.5871 12.8926 44.113 12.4768 44.113 11.8958V11.5051L42.981 11.5752C42.435 11.6153 42.1245 11.8608 42.1245 12.2414C42.1245 12.6421 42.4551 12.8926 42.9509 12.8926ZM42.4701 13.9495C41.4483 13.9495 40.6719 13.2883 40.6719 12.3216C40.6719 11.3449 41.4233 10.7789 42.7606 10.6987L44.113 10.6185V10.263C44.113 9.76207 43.7624 9.47153 43.2114 9.47153C42.6655 9.47153 42.3198 9.74206 42.2497 10.1377H40.9124C40.9675 9.09586 41.854 8.37962 43.2765 8.37962C44.654 8.37962 45.5505 9.09086 45.5505 10.1728V13.8643H44.1381V13.0428H44.108C43.8074 13.6138 43.1413 13.9495 42.4701 13.9495ZM46.5272 13.8643V6.63658H47.9898V13.8643H46.5272ZM49.0116 13.8643V6.63658H50.4742V13.8643H49.0116ZM53.8701 9.46152C53.229 9.46152 52.7682 9.9474 52.7181 10.6185H54.9971C54.967 9.93239 54.5213 9.46152 53.8701 9.46152ZM55.0172 12.2214H56.3595C56.1993 13.2732 55.2376 13.9795 53.9102 13.9795C52.2573 13.9795 51.2655 12.9226 51.2655 11.2046C51.2655 9.49161 52.2673 8.37962 53.8551 8.37962C55.4178 8.37962 56.4046 9.43651 56.4046 11.0693V11.5151H52.7031V11.6053C52.7031 12.3717 53.189 12.8976 53.9352 12.8976C54.4712 12.8976 54.8819 12.6321 55.0172 12.2214ZM57.5466 7.25769H59.0092V8.49483H60.0009V9.59675H59.0092V12.1663C59.0092 12.577 59.2095 12.7724 59.6403 12.7724C59.7705 12.7724 59.9058 12.7623 59.9959 12.7473V13.8242C59.8457 13.8593 59.5952 13.8843 59.2997 13.8843C58.0374 13.8843 57.5466 13.4636 57.5466 12.4168V9.59675H56.7903V8.49483H57.5466V7.25769ZM64.1232 13.9895C62.0195 13.9895 60.7021 12.582 60.7021 10.248C60.7021 7.91882 62.0295 6.51135 64.1232 6.51135C65.8612 6.51135 67.1836 7.61327 67.2988 9.23116H65.8261C65.6859 8.34459 65.0047 7.76358 64.1232 7.76358C62.9812 7.76358 62.2448 8.72026 62.2448 10.2429C62.2448 11.7856 62.9712 12.7373 64.1282 12.7373C65.0248 12.7373 65.6709 12.2114 65.8312 11.3549H67.3038C67.1335 12.9677 65.8963 13.9895 64.1232 13.9895ZM70.5743 13.9795C68.952 13.9795 67.9148 12.9377 67.9148 11.1745C67.9148 9.43651 68.9664 8.37962 70.5743 8.37962C72.1823 8.37962 73.2344 9.4315 73.2344 11.1745C73.2344 12.9427 72.1973 13.9795 70.5743 13.9795ZM70.5743 12.8625C71.2906 12.8625 71.7464 12.2565 71.7464 11.1795C71.7464 10.1127 71.2858 9.49662 70.5743 9.49662C69.8635 9.49662 69.3975 10.1127 69.3975 11.1795C69.3975 12.2565 69.8533 12.8625 70.5743 12.8625ZM73.9856 13.8643V8.49483H75.3982V9.45152H75.4283C75.7134 8.78538 76.2796 8.3947 77.1062 8.3947C78.2981 8.3947 78.9691 9.14597 78.9691 10.4032V13.8643H77.5065V10.7087C77.5065 10.0075 77.1761 9.60676 76.5202 9.60676C75.8635 9.60676 75.4482 10.0876 75.4482 10.7839V13.8643H73.9856ZM79.8958 13.8643V8.49483H81.3084V9.45152H81.3385C81.6237 8.78538 82.1898 8.3947 83.0164 8.3947C84.2083 8.3947 84.88 9.14597 84.88 10.4032V13.8643H83.4174V10.7087C83.4174 10.0075 83.0863 9.60676 82.4304 9.60676C81.7745 9.60676 81.3584 10.0876 81.3584 10.7839V13.8643H79.8958ZM88.2158 9.46152C87.5743 9.46152 87.1137 9.9474 87.0637 10.6185H89.3426C89.3125 9.93239 88.867 9.46152 88.2158 9.46152ZM89.3625 12.2214H90.7052C90.5448 13.2732 89.5832 13.9795 88.2556 13.9795C86.6024 13.9795 85.6106 12.9226 85.6106 11.2046C85.6106 9.49161 86.6127 8.37962 88.2008 8.37962C89.7635 8.37962 90.7498 9.43651 90.7498 11.0693V11.5151H87.0486V11.6053C87.0486 12.3717 87.5346 12.8976 88.281 12.8976C88.8163 12.8976 89.2275 12.6321 89.3625 12.2214ZM96.3797 10.4933H95.0226C94.9376 9.92739 94.562 9.52664 93.9609 9.52664C93.2392 9.52664 92.7888 10.1377 92.7888 11.1745C92.7888 12.2314 93.2391 12.8325 93.9657 12.8325C94.5517 12.8325 94.9321 12.4819 95.0226 11.8958H96.3851C96.3097 13.163 95.3632 13.9795 93.9506 13.9795C92.3331 13.9795 91.3056 12.9277 91.3056 11.1745C91.3056 9.45152 92.333 8.37962 93.9403 8.37962C95.3934 8.37962 96.3145 9.27619 96.3797 10.4933ZM97.4818 7.25769H98.9444V8.49483H99.9362V9.59675H98.9444V12.1663C98.9444 12.577 99.1446 12.7724 99.5757 12.7724C99.7059 12.7724 99.8409 12.7623 99.9314 12.7473V13.8242C99.7806 13.8593 99.5304 13.8843 99.235 13.8843C97.9725 13.8843 97.4818 13.4636 97.4818 12.4168V9.59675H96.7258V8.49483H97.4818V7.25769Z" fill="#3999FB"/>
<path d="M5.44706 3.18984C9.77994 -1.05237 16.8048 -1.05237 21.1377 3.18984L21.6592 3.7004C21.8758 3.91251 21.8758 4.25641 21.6592 4.46852L19.8753 6.21504C19.767 6.32109 19.5914 6.32109 19.4831 6.21504L18.7655 5.51245C15.7428 2.55297 10.842 2.55297 7.81928 5.51245L7.05081 6.26486C6.94245 6.37092 6.76685 6.37092 6.65853 6.26486L4.8747 4.51834C4.65806 4.30623 4.65806 3.96233 4.8747 3.75022L5.44706 3.18984ZM24.8268 6.80182L26.4144 8.35625C26.6311 8.56831 26.6311 8.91224 26.4144 9.12438L19.2558 16.1334C19.0392 16.3455 18.6879 16.3455 18.4712 16.1334L13.3905 11.1589C13.3363 11.1059 13.2485 11.1059 13.1943 11.1589L8.11366 16.1334C7.897 16.3455 7.54581 16.3455 7.32915 16.1334L0.170294 9.12424C-0.046348 8.91218 -0.046348 8.56824 0.170294 8.35611L1.75791 6.80173C1.97455 6.58962 2.3258 6.58962 2.54244 6.80173L7.62326 11.7763C7.67747 11.8293 7.76527 11.8293 7.81942 11.7763L12.9 6.80173C13.1167 6.58962 13.4679 6.58961 13.6845 6.80172V6.80172L18.7654 11.7763C18.8196 11.8293 18.9074 11.8293 18.9615 11.7763L24.0423 6.80182C24.2589 6.58971 24.6102 6.58971 24.8268 6.80182Z" fill="#3B99FC"/>
</g>
<defs>
<clipPath id="clip0_1_445">
<rect width="100" height="16.3125" fill="white"/>
</clipPath>
</defs>
</svg>

<svg xmlns="http://www.w3.org/2000/svg" width="376.471" height="64" fill="none" viewBox="0 0 100 17"><g clip-path="url(#a)"><path fill="#3999FB" fill-rule="evenodd" d="m36.104 8.926-1.373 4.938h-1.427l-1.913-7.227h1.567l1.137 5.234h.04l1.353-5.234h1.277l1.352 5.234h.04L39.3 6.637h1.567l-1.918 7.227H37.52L36.15 8.926h-.045Zm6.847 3.967c.636 0 1.162-.416 1.162-.997v-.39l-1.132.07c-.546.04-.857.285-.857.665 0 .401.331.652.827.652Zm-.48 1.056c-1.023 0-1.8-.66-1.8-1.627 0-.977.752-1.543 2.09-1.623l1.352-.08v-.356c0-.5-.35-.791-.902-.791-.545 0-.891.27-.961.666h-1.338c.056-1.042.942-1.758 2.364-1.758 1.378 0 2.274.71 2.274 1.793v3.691h-1.412v-.821h-.03c-.3.57-.967.907-1.638.907Zm4.056-.085V6.637h1.463v7.227h-1.463Zm2.485 0V6.637h1.462v7.227h-1.462Zm4.858-4.402c-.641 0-1.102.485-1.152 1.156h2.28c-.031-.686-.477-1.156-1.128-1.156Zm1.147 2.76h1.342c-.16 1.051-1.121 1.758-2.449 1.758-1.653 0-2.644-1.057-2.644-2.775 0-1.713 1.001-2.825 2.59-2.825 1.562 0 2.549 1.057 2.549 2.69v.445h-3.702v.09c0 .767.486 1.293 1.232 1.293.536 0 .947-.266 1.082-.677Zm2.53-4.964h1.462v1.237h.992v1.102h-.992v2.57c0 .41.2.605.631.605.13 0 .266-.01.356-.025v1.077c-.15.035-.4.06-.696.06-1.263 0-1.753-.42-1.753-1.467v-2.82h-.757V8.495h.757V7.258Zm6.576 6.731c-2.104 0-3.42-1.407-3.42-3.741 0-2.33 1.326-3.737 3.42-3.737 1.738 0 3.06 1.102 3.176 2.72h-1.473c-.14-.886-.821-1.467-1.703-1.467-1.142 0-1.878.956-1.878 2.479 0 1.543.726 2.494 1.883 2.494.897 0 1.543-.526 1.703-1.382h1.473c-.17 1.613-1.408 2.634-3.18 2.634Zm6.451-.01c-1.622 0-2.66-1.041-2.66-2.804 0-1.738 1.052-2.795 2.66-2.795s2.66 1.051 2.66 2.794c0 1.769-1.037 2.806-2.66 2.806Zm0-1.116c.717 0 1.172-.606 1.172-1.683 0-1.067-.46-1.683-1.172-1.683-.71 0-1.177.616-1.177 1.683 0 1.077.456 1.683 1.177 1.683Zm3.412 1.001v-5.37h1.412v.958h.03c.285-.667.852-1.057 1.678-1.057 1.192 0 1.863.751 1.863 2.008v3.461h-1.462V10.71c0-.701-.33-1.102-.987-1.102-.656 0-1.072.48-1.072 1.177v3.08h-1.462Zm5.91 0v-5.37h1.412v.958h.03c.286-.667.852-1.057 1.678-1.057 1.192 0 1.864.751 1.864 2.008v3.461h-1.463V10.71c0-.701-.33-1.102-.987-1.102-.656 0-1.072.48-1.072 1.177v3.08h-1.462Zm8.32-4.402c-.642 0-1.102.485-1.152 1.156h2.279c-.03-.686-.476-1.156-1.127-1.156Zm1.147 2.76h1.342c-.16 1.051-1.122 1.758-2.45 1.758-1.653 0-2.644-1.057-2.644-2.775 0-1.713 1.002-2.825 2.59-2.825 1.563 0 2.549 1.057 2.549 2.69v.445h-3.701v.09c0 .767.486 1.293 1.232 1.293.535 0 .947-.266 1.081-.677Zm7.017-1.729h-1.357c-.085-.566-.461-.966-1.062-.966-.722 0-1.172.61-1.172 1.648 0 1.056.45 1.657 1.177 1.657.586 0 .966-.35 1.057-.936h1.362c-.075 1.267-1.022 2.083-2.434 2.083-1.618 0-2.645-1.051-2.645-2.804 0-1.723 1.027-2.795 2.634-2.795 1.453 0 2.374.896 2.44 2.113Zm1.102-3.235h1.462v1.237h.992v1.102h-.992v2.57c0 .41.2.605.632.605.13 0 .265-.01.355-.025v1.077c-.15.035-.4.06-.696.06-1.263 0-1.753-.42-1.753-1.467v-2.82h-.756V8.495h.756V7.258Z" clip-rule="evenodd"/><path fill="#3B99FC" d="M5.447 3.19c4.333-4.242 11.358-4.242 15.69 0l.522.51a.535.535 0 0 1 0 .769l-1.784 1.746a.282.282 0 0 1-.392 0l-.718-.703c-3.022-2.959-7.923-2.959-10.946 0l-.768.753a.282.282 0 0 1-.392 0L4.875 4.518a.535.535 0 0 1 0-.768l.572-.56Zm19.38 3.612 1.587 1.554a.535.535 0 0 1 0 .768l-7.158 7.01a.563.563 0 0 1-.785 0l-5.08-4.975a.14.14 0 0 0-.197 0l-5.08 4.974a.563.563 0 0 1-.785 0L.17 9.124a.535.535 0 0 1 0-.768l1.588-1.554a.563.563 0 0 1 .784 0l5.081 4.974a.14.14 0 0 0 .196 0L12.9 6.802a.563.563 0 0 1 .784 0l5.081 4.974a.14.14 0 0 0 .197 0l5.08-4.974a.563.563 0 0 1 .785 0Z"/></g><defs><clipPath id="a"><path fill="#fff" d="M0 0h100v16.313H0z"/></clipPath></defs></svg>
